X: 128
T: Lady of the Lake
M: C|
K: G
"G"G,B,DG B2GB| dBGA BAG2| "C"cdcB "Am"AGFG| "D"AGFE DCB,A,|
"G"G,B,DG B2GB| dBGA BAG2| "C"cdcB "Am"AGFE|1 "D"DGGF "G"G4 :|2 "D"DGGF "G"GABc||
|: "G"d2B2 "G/B"g3f| "C"e2c2 "A/C#"a3g| "D"f2fg fedf| "A"ed^ce "D"d=cBc|
   "G"d2B2 "G/B"g3f| "C"e2c2 "A/C#"a3g| "D"fedB cAFD|1 "G"G2GF GABc:|2"G"G2GF G2|]
